X:1
T:A Little While
Z:Ira David Sankey
L:1/8
Q:1/4=90
M:4/4
K:Ab
V:1
E CE | c3 c BA FA | F2 E2 z E GB | d3 d d=d eB | c4 z E CE | c3 c BA FA | F2 E2 z E Ac | ec AB cA B2 | (A4 HA) |]
V:2
C A,C | E3 E DC DD | D2 C2 z E EE | G3 G GG GE | E4 z C A,C | E3 E DC DD | D2 C2 z C CE | AE CF EC D2 | (C2 D2 HC) |]
V:3 bass
A, A,A, | A,3 A, A,A, A,A, | A,2 A,2 z E, E,G, | B,3 B, B,B, B,G, | A,4 z A, E,A, | A,3 A, A,A, A,A, | A,2 A,2 z A, A,A, | CA, A,A, A,2 G,2 | (A,2 F,2 HE,) |]
V:4 bass
A,, A,,A,, | A,,3 A,, A,,A,, D,F, | A,2 A,,2 z E, E,E, | E,3 E, E,E, E,E, | A,,4 z A,, A,,A,, | A,,3 A,, A,,A,, D,F, | A,2 A,,2 z A,, A,,A,, | A,,A,, F,D, E,2 E,2 | (A,,4 HA,,) |]

